X:219
T:Bouree,The. (p)1679.PLFD.219
T:Sweet William. (p)1679.PLFD.219
M:4/4
L:1/4
Q:1/2=80
S:Playford, Dancing Master,6th Ed.,1679
O:England
H:1679.
Z:Chris Partington.
K:G
GdBe|dg/a/fd|eBc/B/A/G/|AFG2|
GdBe|dg/a/fd|e/d/e/B/^cd|d>cd2:|
|:AA/B/cc/d/|ed/c/BB/c/|dc/A/BA/F/|
G>AFD|EFGA|Bcd>c|BA/G/FB/c/|A>GG2:|
